X:180
T:Down by the Sally Gardens
Z:Jack Campin, http://www.campin.me.uk/
F:Jack Campin's Nine-Note Tunebook
% last edit 03-02-2013
M:C
L:1/8
Q:1/4=100
K:C
CD|E2 DC D2 EG|A4 G2 cG|A2 GE D3  C|C6:|
G2|c2 BG A2 c2|B4 G2 EG|A2 GE GA cd|c6
CD|E2 DC D2 EG|A4 G2 cG|A2 GE D3  C|C6|]

